src/assets/metronic/worbby/global/img/icon-money.svg

<?xml version="1.0" encoding="UTF-8"?>
<svg width="50px" height="24px" viewBox="0 0 50 24" version="1.1" xmlns="http://www.w3.org/2000/svg" xmlns:xlink="http://www.w3.org/1999/xlink">
    <!-- Generator: Sketch 41.2 (35397) - http://www.bohemiancoding.com/sketch -->
    <title>icon-money</title>
    <desc>Created with Sketch.</desc>
    <defs>
        <rect id="path-1" x="0" y="0" width="50" height="24" rx="2"></rect>
        <mask id="mask-2" maskContentUnits="userSpaceOnUse" maskUnits="objectBoundingBox" x="0" y="0" width="50" height="24" fill="white">
            <use xlink:href="#path-1"></use>
        </mask>
        <ellipse id="path-3" cx="25" cy="12" rx="12" ry="12"></ellipse>
        <mask id="mask-4" maskContentUnits="userSpaceOnUse" maskUnits="objectBoundingBox" x="0" y="0" width="24" height="24" fill="white">
            <use xlink:href="#path-3"></use>
        </mask>
    </defs>
    <g id="Desktop" stroke="none" stroke-width="1" fill="none" fill-rule="evenodd">
        <g id="Desktop-Needor-Worbbior-Profile" transform="translate(-255.000000, -581.000000)">
            <g id="Group-15-Copy" transform="translate(175.000000, 282.000000)">
                <g id="Group-6" transform="translate(30.000000, 287.000000)">
                    <g id="Group-10" transform="translate(10.000000, 12.000000)">
                        <g id="icon-money" transform="translate(40.000000, 0.000000)">
                            <g>
                                <g>
                                    <use id="Rectangle-4" stroke="#FFCB33" mask="url(#mask-2)" stroke-width="4" xlink:href="#path-1"></use>
                                    <use id="Oval-2" stroke="#FFCB33" mask="url(#mask-4)" stroke-width="4" xlink:href="#path-3"></use>
                                    <path d="M25.0190593,18 L25.2803566,18 C25.4801721,18 25.5877651,17.9030023 25.5877651,17.7228637 L25.5877651,16.8083141 C27.5090686,16.6558891 29,15.6997691 29,14.0230947 C28.9692591,12.8452656 28.1853674,11.8891455 26.1564709,11.2794457 L25.5877651,11.0993072 L25.5877651,9.00692841 C26.0642484,9.1039261 26.3870274,9.35334873 26.5714725,9.7551963 C26.6790655,9.9630485 26.8327698,10.0323326 27.0633262,9.97690531 L28.2929603,9.6443418 C28.5388872,9.57505774 28.6464802,9.42263279 28.5388872,9.20092379 C28.0624039,8.09237875 27.0479557,7.37182448 25.5877651,7.24711316 L25.5877651,6.27713626 C25.5877651,6.09699769 25.4801721,6 25.2803566,6 L25.0190593,6 C24.8192438,6 24.7116508,6.09699769 24.7116508,6.27713626 L24.7116508,7.23325635 C22.8364587,7.35796767 21.3916385,8.39722864 21.3916385,10.0046189 C21.4070089,11.4595843 22.9747925,12.3048499 24.1736858,12.6512702 L24.7116508,12.8314088 L24.7116508,15.0900693 C23.8816477,15.0207852 23.3129419,14.6327945 23.0516446,14.0785219 C22.9440516,13.8706697 22.7903474,13.7736721 22.559791,13.8152425 L21.3147864,14.0923788 C21.0688595,14.147806 20.9458961,14.3002309 21.0227482,14.52194 C21.4377498,15.8660508 22.7903474,16.73903 24.7116508,16.8221709 L24.7116508,17.7228637 C24.7116508,17.9030023 24.8192438,18 25.0190593,18 Z M24.7116508,10.8083141 L24.6194282,10.7667436 C23.8662773,10.4896074 23.7586843,10.1570439 23.7586843,9.86605081 C23.7586843,9.36720554 24.1736858,9.07621247 24.7116508,8.97921478 L24.7116508,10.8083141 Z M25.5877651,15.0623557 L25.5877651,13.1224018 L25.6799877,13.1639723 C26.3101752,13.3856813 26.6329542,13.6905312 26.6329542,14.1062356 C26.6329542,14.6050808 26.2486935,14.9376443 25.5877651,15.0623557 Z" id="$" fill="#FFCB33"></path>
                                </g>
                            </g>
                        </g>
                    </g>
                </g>
            </g>
        </g>
    </g>
</svg>

<svg xmlns="http://www.w3.org/2000/svg" width="50" height="24" xmlns:xlink="http://www.w3.org/1999/xlink"><defs><rect id="a" width="50" height="24" rx="2"/><mask id="c" width="50" height="24" x="0" y="0" fill="#fff"><use xlink:href="#a"/></mask><ellipse id="b" cx="25" cy="12" rx="12" ry="12"/><mask id="d" width="24" height="24" x="0" y="0" fill="#fff"><use xlink:href="#b"/></mask></defs><g fill="none" fill-rule="evenodd"><use stroke="#FFCB33" stroke-width="4" mask="url(#c)" xlink:href="#a"/><use stroke="#FFCB33" stroke-width="4" mask="url(#d)" xlink:href="#b"/><path fill="#FFCB33" d="M25.019 18h.2614c.1998 0 .3074-.097.3074-.277v-.9147C27.509 16.656 29 15.6998 29 14.023c-.0307-1.1777-.8146-2.134-2.8435-2.7436l-.5687-.18V9.0068c.4764.097.7992.3463.9837.7482.1076.2078.2613.277.4918.2217l1.2297-.3327c.246-.0692.3535-.2217.246-.4434-.4766-1.1086-1.491-1.8292-2.9512-1.954v-.97c0-.18-.1076-.277-.3074-.277h-.2613c-.1998 0-.3073.097-.3073.277v.9563c-1.8752.1247-3.32 1.164-3.32 2.7713.0153 1.455 1.583 2.3002 2.782 2.6467l.538.18v2.2588c-.83-.0692-1.3988-.4572-1.66-1.0115-.1076-.2078-.2614-.3048-.492-.2633l-1.245.2772c-.2458.0554-.3688.2078-.292.4295.415 1.344 1.7676 2.217 3.689 2.3002v.9007c0 .18.1075.277.3074.277zm-.3073-7.1917l-.0923-.0416c-.753-.277-.8607-.6097-.8607-.9006 0-.4988.415-.7898.953-.8868v1.829zm.876 4.254v-1.94l.0923.0417c.6302.2217.953.5265.953.9422 0 .499-.3843.8314-1.0452.9562z"/></g></svg>
